build/category/MaleOutline.svg

<svg xmlns="http://www.w3.org/2000/svg" fill="none" viewBox="0 0 24 24" focusable="false"><path d="M0 0H24V24H0z"/><path fill="#74767B" fill-rule="evenodd" d="M11.9998 2C11.1714 2 10.4998 2.67157 10.4998 3.5L10.4998 4.5C10.4998 5.32843 11.1714 6 11.9998 6C12.8283 6 13.4998 5.32843 13.4998 4.5L13.4998 3.5C13.4998 2.67157 12.8283 2 11.9998 2ZM9.22078 9.6302C9.09157 9.81451 8.97263 10.0253 8.86391 10.2631C8.40182 11.2739 8.16719 12.7004 8.16719 14.3827C8.16719 14.7417 7.87617 15.0327 7.51719 15.0327C7.1582 15.0327 6.86719 14.7417 6.86719 14.3827C6.86719 12.6084 7.11047 10.9719 7.6816 9.72262C8.07625 8.85933 8.64599 8.14986 9.41428 7.73643C9.52399 7.67191 9.6624 7.607 9.83689 7.54702C10.0648 7.46407 10.3077 7.40482 10.5661 7.37214C10.9453 7.31144 11.4159 7.27319 11.9997 7.27319C12.5955 7.27319 13.0734 7.31303 13.4566 7.37592C13.6714 7.40486 13.8754 7.45225 14.069 7.51643C14.319 7.59403 14.5023 7.6821 14.6366 7.7679C15.3761 8.18533 15.9274 8.88085 16.3122 9.72262C16.8834 10.9719 17.1266 12.6084 17.1266 14.3827C17.1266 14.7417 16.8356 15.0327 16.4766 15.0327C16.1177 15.0327 15.8266 14.7417 15.8266 14.3827C15.8266 12.7004 15.592 11.2739 15.1299 10.2631C15.0231 10.0294 14.9063 9.82171 14.7797 9.63965L14.0008 14.8342L14.0008 21.3676C14.0008 21.7265 13.7098 22.0176 13.3508 22.0176C12.9918 22.0176 12.7008 21.7265 12.7008 21.3676L12.7008 15.1952L11.307 15.1952L11.307 21.3676C11.307 21.7265 11.0159 22.0176 10.657 22.0176C10.298 22.0176 10.007 21.7265 10.007 21.3676L10.007 14.8227L9.22078 9.6302ZM11.9997 8.57319C12.4894 8.57319 12.8645 8.603 13.1484 8.64373C13.1744 8.6499 13.201 8.65455 13.2282 8.65755C13.2409 8.65896 13.2536 8.66047 13.2662 8.66208C13.4005 8.68473 13.511 8.7096 13.6009 8.73403L12.8271 13.8952L11.1814 13.8952L10.3999 8.73368C10.4931 8.70842 10.6082 8.6827 10.7489 8.65946L10.7656 8.65755C10.7895 8.65492 10.8129 8.65102 10.8359 8.64593C11.1215 8.60408 11.5012 8.57319 11.9997 8.57319Z"/></svg>

<svg xmlns="http://www.w3.org/2000/svg" fill="none" viewBox="0 0 24 24" focusable="false"><path fill="#74767B" fill-rule="evenodd" d="M12 2c-.83 0-1.5.67-1.5 1.5v1c0 .82.67 1.5 1.5 1.5.82 0 1.5-.68 1.5-1.5v-1c0-.83-.68-1.5-1.5-1.5M9.22 9.63q-.195.27-.36.63c-.46 1.01-.7 2.44-.7 4.12 0 .36-.29.65-.65.65s-.65-.29-.65-.65c0-1.78.25-3.41.82-4.66.39-.87.96-1.58 1.73-1.99.11-.06.25-.13.42-.19.23-.08.47-.14.73-.17.38-.06.85-.1 1.43-.1.6 0 1.08.04 1.46.1.22.03.42.08.61.14.25.08.44.17.57.25.74.42 1.29 1.12 1.68 1.96.57 1.25.81 2.88.81 4.66 0 .36-.29.65-.65.65s-.65-.29-.65-.65c0-1.68-.23-3.11-.7-4.12-.1-.24-.22-.44-.35-.63l-.77 5.2v6.53c0 .36-.29.65-.65.65s-.65-.29-.65-.65v-6.17h-1.4v6.17c0 .36-.29.65-.65.65s-.65-.29-.65-.65v-6.54zm2.77-1.06c.49 0 .87.03 1.15.07.03 0 .06.01.08.01s.03.01.04.01c.14.02.25.04.34.07l-.78 5.16h-1.64l-.79-5.16c.1-.03.21-.05.35-.08h.02c.02 0 .05 0 .07-.01.29-.04.67-.07 1.16-.07"/></svg>
